proprietary/assets/icons/status/foutmelding.svg

<svg width="48" height="48" viewBox="0 0 48 48" fill="none" xmlns="http://www.w3.org/2000/svg">
<path fill-rule="evenodd" clip-rule="evenodd" d="M48 24C48 37.2548 37.2548 48 24 48C10.7452 48 0 37.2548 0 24C0 10.7452 10.7452 0 24 0C37.2548 0 48 10.7452 48 24ZM24.0004 20.5258L31.1318 14.1944C31.8861 13.5315 33.029 13.5544 33.7604 14.2629C34.469 14.9715 34.469 16.1144 33.8061 16.8687L27.4747 24.0001L33.7833 31.1544C34.4461 31.9086 34.4233 33.0287 33.7376 33.7601C33.029 34.4458 31.8861 34.4687 31.1318 33.8058L24.0004 27.4744L16.8461 33.7829C16.0918 34.4458 14.9718 34.4229 14.2404 33.7372C13.5318 33.0287 13.5318 31.8858 14.1947 31.1315L20.5261 24.0001L14.1947 16.8458C13.5318 16.0915 13.5547 14.9715 14.2404 14.2401C14.9718 13.5544 16.1147 13.5315 16.869 14.1944L24.0004 20.5258ZM23.9776 24.0001L24.0004 24.0229L24.069 24.0001L24.0461 23.9772L24.0233 23.9544L24.0004 23.9772L23.9776 24.0001Z" fill="#D52B1E"/>
</svg>

<svg xmlns="http://www.w3.org/2000/svg" width="48" height="48" xmlns:v="https://vecta.io/nano"><path d="M48 24c0 13.254-10.746 24-24 24S0 37.254 0 24 10.746 0 24 0s24 10.746 24 24zm-24-3.473l7.133-6.332a1.94 1.94 0 0 1 2.629.066c.707.711.707 1.852.043 2.605L27.477 24l6.309 7.156c.66.754.637 1.871-.047 2.605-.711.684-1.852.707-2.605.043L24 27.473l-7.152 6.309a1.93 1.93 0 0 1-2.605-.043c-.711-.711-.711-1.852-.047-2.605L20.527 24l-6.332-7.152c-.664-.758-.641-1.875.047-2.609.73-.684 1.871-.707 2.625-.043zM23.977 24l.023.023.07-.023-.047-.047zm0 0" fill-rule="evenodd" fill="rgb(83.529412%,16.862745%,11.764706%)"/></svg>
